!!!OTL: Graf und Nonne (Die Nonne)
!!!OTL-incipit:Ach Maedchen, ihr seid huebsch und fein;
!!!ARE: Europa, Mitteleuropa, Deutschland / France, Lothringen, Forbach,
!!    Fremersdorf
!!!YOR: 8, S. 86
!!    1936 aufgezeichnet
!!!SCT: Q0155c
!!!YEM: Copyright 1995, estate of Helmut Schaffrath.
**kern	**text
*ICvox	*
*M4/4	*
*met(c)	*
*k[f#]	*
*G:	*
{4d	Ach
=1	=1
4b	Mäd-
4b	-chen,
4g	ihr
4b	seid
=2	=2
4b	hübsch
4a	und
4g	fein;
4r}	.
=3	=3
{4.cc	wenn
8b	ihr
4a	es
4g	nur
=4	=4
4a	rei-
4a	-cher
4g}	wärt!
{8bL	Wä-
8ccJ	-ret
=5	=5
8ddL	ihr
8ddJ	es
4b	so
4ee	reich
4dd	an
=6	=6
(8ddL	Gü-
8ccJ	.
4b)	.
4a}	-tern,
{8f#L	wä-
8gJ	-ret
=7	=7
8aL	ihr
8aJ	es
4a	so
4b	reich
(8bL	an
8aJ)	.
=8	=8
(4g	Gü-
4e)	.
4d}	-tern,
{4d	gleich
=9	=9
8gL	wie
8gJ	ich
4g	vom
4a	A-
4a	-del
=10	=10
2b}	bin,
{2cc	gleich
=11	=11
4g	wie
8eL	ich
8f#J	vom
4g	A-
4f#	-del
=12	=12
2e	bin.
4r}	.
==	==
!!!AGN: Ballade, Standesunterschied, Werbung, Liebe, Glueck
!! Modulation in der letzten Zeile.
!!!ONB: ESAC (Essen Associative Code) Database: BALLADE
!!!AMT: simple quadruple
!!!AIN: vox
!!!EED: Helmut Schaffrath
!!!EEV: 1.0
!!@@COMMENT:"Vorgesungen von Johann Frey (geb. 1864)
!!in Fremersdorf Forbach, 1936;
!!aufgereichnet von A. Rohr
!!(Sammlung Louis Pinck; DVA = 4 158821)"
!!@@END:
!!!source: Deutsche Volkslieder mit ihren Melodien. Herausgegeben vom Deutschen Volksliedarchiv. Achter Teil. Freiburg/Breisgau 1988.
!!!page: 86
!!!ENC: Anna Maria Matuszewska
!!!EEV: 2025/03/10
*-	*-
